X:2256
T:O Shenn Dhoan 
C:Traditional
O:Isle of Man
S:Mona Melodies No 8.
Z:Clague collection.
B:Kiaull Vannin #256 
M:4/4 
L:1/8 
Q:60 
K:D 
A2|d>f fd c>d ec|Bd cB AA zA|Ad cd e2 f>g|a3f gf ed|d2 c2 z A>A| 
d>c d>e f>g (a2-|f) f gf ed d2|c4 d>e f2|a>g ec A>B c2|d>B A A3|| 

